src/apps/scalable/flatseal.svg

<svg width="64" height="64" version="1.1" xmlns="http://www.w3.org/2000/svg" xmlns:xlink="http://www.w3.org/1999/xlink">
 <defs>
  <linearGradient id="b" x1="399.57" x2="399.57" y1="545.8" y2="517.8" gradientTransform="matrix(2.1429 0 0 2.1429 -826.34 -1107.5)" gradientUnits="userSpaceOnUse">
   <stop stop-color="#3889e9" offset="0"/>
   <stop stop-color="#5ea5fb" offset="1"/>
  </linearGradient>
  <linearGradient id="linearGradient944" x1="32.405" x2="32.405" y1="47.428" y2="16.37" gradientUnits="userSpaceOnUse">
   <stop stop-color="#5c5c5c" offset="0"/>
   <stop stop-color="#8f8f8f" offset="1"/>
  </linearGradient>
  <linearGradient id="linearGradient952" x1="32.414" x2="32.414" y1="37.157" y2="27.471" gradientTransform="matrix(1.4167 0 0 1.4167 -13.92 -13.639)" gradientUnits="userSpaceOnUse">
   <stop stop-color="#d28360" offset="0"/>
   <stop stop-color="#d7ad8e" offset="1"/>
  </linearGradient>
  <filter id="filter960" x="-.10362" y="-.11276" width="1.2072" height="1.2255" color-interpolation-filters="sRGB">
   <feGaussianBlur stdDeviation="1.5975"/>
  </filter>
  <linearGradient id="linearGradient899" x1="-39.605" x2="-39.605" y1="58.247" y2="6.9877" gradientTransform="translate(70.543 .41975)" gradientUnits="userSpaceOnUse">
   <stop stop-color="#ccc" offset="0"/>
   <stop stop-color="#f5f5f5" offset="1"/>
  </linearGradient>
  <filter id="filter930" x="-.03888" y="-.03888" width="1.0778" height="1.0778" color-interpolation-filters="sRGB">
   <feGaussianBlur stdDeviation="0.972"/>
  </filter>
 </defs>
 <circle cx="32" cy="32" r="30" fill="#000000" filter="url(#filter930)" opacity=".15" stroke-linecap="square" stroke-width="2.2881" style="isolation:isolate;paint-order:stroke fill markers"/>
 <circle cx="32" cy="32" r="30" fill="url(#linearGradient899)" stroke-linecap="square" stroke-width="2.2881" style="isolation:isolate;paint-order:stroke fill markers"/>
 <circle cx="32.017" cy="31.998" r="30" fill-opacity="0" stroke-width="1.5715"/>
 <circle cx="32.017" cy="31.998" r="0" fill="url(#b)" stroke-width="1.5715"/>
 <g stroke-width="1.4167">
  <path d="m32 17a17 17 0 0 0-17 17 17 17 0 0 0 17 17h17.143l2.8574-3h-10.359a17 17 0 0 0 7.3594-14 17 17 0 0 0-17-17zm0 9.916a7.0833 7.0833 0 0 1 7.084 7.084 7.0833 7.0833 0 0 1-7.084 7.084 7.0833 7.0833 0 0 1-7.084-7.084 7.0833 7.0833 0 0 1 7.084-7.084z" filter="url(#filter960)" opacity=".15" style="paint-order:normal"/>
  <path d="m32 23.5a8.5 8.5 0 0 0-8.5 8.5 8.5 8.5 0 0 0 8.5 8.5 8.5 8.5 0 0 0 8.5-8.5 8.5 8.5 0 0 0-8.5-8.5zm0 2.8333a5.6667 5.6667 0 0 1 5.6667 5.6667 5.6667 5.6667 0 0 1-5.6667 5.6667 5.6667 5.6667 0 0 1-5.6667-5.6667 5.6667 5.6667 0 0 1 5.6667-5.6667z" fill="url(#linearGradient952)" style="paint-order:normal"/>
  <path d="m32 15a17 17 0 0 0-17 17 17 17 0 0 0 17 17h17.143l2.8574-3h-10.359a17 17 0 0 0 7.3594-14 17 17 0 0 0-17-17zm0 9.916a7.0833 7.0833 0 0 1 7.084 7.084 7.0833 7.0833 0 0 1-7.084 7.084 7.0833 7.0833 0 0 1-7.084-7.084 7.0833 7.0833 0 0 1 7.084-7.084z" fill="url(#linearGradient944)" style="paint-order:normal"/>
 </g>
</svg>

<svg width="64" height="64" xmlns="http://www.w3.org/2000/svg"><defs><linearGradient id="c" x1="399.57" x2="399.57" y1="545.8" y2="517.8" gradientTransform="translate(-826.34 -1107.5) scale(2.1429)" gradientUnits="userSpaceOnUse"><stop stop-color="#3889e9" offset="0"/><stop stop-color="#5ea5fb" offset="1"/></linearGradient><linearGradient id="f" x1="32.405" x2="32.405" y1="47.428" y2="16.37" gradientUnits="userSpaceOnUse"><stop stop-color="#5c5c5c" offset="0"/><stop stop-color="#8f8f8f" offset="1"/></linearGradient><linearGradient id="e" x1="32.414" x2="32.414" y1="37.157" y2="27.471" gradientTransform="translate(-13.92 -13.639) scale(1.4167)" gradientUnits="userSpaceOnUse"><stop stop-color="#d28360" offset="0"/><stop stop-color="#d7ad8e" offset="1"/></linearGradient><linearGradient id="b" x1="-39.605" x2="-39.605" y1="58.247" y2="6.988" gradientTransform="translate(70.543 .42)" gradientUnits="userSpaceOnUse"><stop stop-color="#ccc" offset="0"/><stop stop-color="#f5f5f5" offset="1"/></linearGradient><filter id="d" x="-.104" y="-.113" width="1.207" height="1.226" color-interpolation-filters="sRGB"><feGaussianBlur stdDeviation="1.597"/></filter><filter id="a" x="-.039" y="-.039" width="1.078" height="1.078" color-interpolation-filters="sRGB"><feGaussianBlur stdDeviation=".972"/></filter></defs><circle cx="32" cy="32" r="30" filter="url(#a)" opacity=".15" style="isolation:isolate;paint-order:stroke fill markers"/><circle cx="32" cy="32" r="30" fill="url(#b)" style="isolation:isolate;paint-order:stroke fill markers"/><circle cx="32.017" cy="31.998" r="30" fill="none"/><g stroke-width="1.417"><path d="M32 17a17 17 0 0 0-17 17 17 17 0 0 0 17 17h17.143L52 48H41.641a17 17 0 0 0 7.36-14 17 17 0 0 0-17-17zm0 9.916A7.083 7.083 0 0 1 39.084 34 7.083 7.083 0 0 1 32 41.084 7.083 7.083 0 0 1 24.916 34 7.083 7.083 0 0 1 32 26.916z" filter="url(#d)" opacity=".15" style="paint-order:normal"/><path d="M32 23.5a8.5 8.5 0 0 0-8.5 8.5 8.5 8.5 0 0 0 8.5 8.5 8.5 8.5 0 0 0 8.5-8.5 8.5 8.5 0 0 0-8.5-8.5zm0 2.833A5.667 5.667 0 0 1 37.667 32 5.667 5.667 0 0 1 32 37.667 5.667 5.667 0 0 1 26.333 32 5.667 5.667 0 0 1 32 26.333z" fill="url(#e)" style="paint-order:normal"/><path d="M32 15a17 17 0 0 0-17 17 17 17 0 0 0 17 17h17.143L52 46H41.641a17 17 0 0 0 7.36-14 17 17 0 0 0-17-17zm0 9.916A7.083 7.083 0 0 1 39.084 32 7.083 7.083 0 0 1 32 39.084 7.083 7.083 0 0 1 24.916 32 7.083 7.083 0 0 1 32 24.916z" fill="url(#f)" style="paint-order:normal"/></g></svg>
